X: 1
T: Miss Flora McDonald's Reel
R: reel
B: RSCDS 7-1(b) 1931
N: Bremner 1757
Z: 2003 John Chambers <jc:trillian.mit.edu>
M: C|
L: 1/8
K: Edor
F | "Em"E2EF BEEF | E2EF "D"dFDF | "Em"E2EF EFGA | "A7"B{c}d Ad "D"FDD :|
|: F | "Em"Eee^d eEEF | Ee"A7"ec "D"dDDF | "Em"Eeed "(G)"Bcde | "A7"f{g}a ef "D"dDA :|
